resources/svg/xls.svg

<svg xmlns="http://www.w3.org/2000/svg" viewBox="0 0 15 15" fill="currentColor"><path fill-rule="evenodd" clip-rule="evenodd" d="M1 1.5C1 0.671573 1.67157 0 2.5 0H10.7071L14 3.29289V13.5C14 14.3284 13.3284 15 12.5 15H2.5C1.67157 15 1 14.3284 1 13.5V1.5ZM3 7.29289V6H2V7.70711L2.79289 8.5L2 9.29289V11H3V9.70711L3.5 9.20711L4 9.70711V11H5V9.29289L4.20711 8.5L5 7.70711V6H4V7.29289L3.5 7.79289L3 7.29289ZM6 6H7V10H9V11H6V6ZM13 6H10V9H12V10H10V11H13V8H11V7H13V6Z" fill="black"/></svg>

<svg xmlns="http://www.w3.org/2000/svg" viewBox="0 0 15 15" fill="currentColor"><path fill-rule="evenodd" clip-rule="evenodd" d="M1 1.5A1.5 1.5 0 012.5 0h8.207L14 3.293V13.5a1.5 1.5 0 01-1.5 1.5h-10A1.5 1.5 0 011 13.5v-12zm2 5.793V6H2v1.707l.793.793L2 9.293V11h1V9.707l.5-.5.5.5V11h1V9.293L4.207 8.5 5 7.707V6H4v1.293l-.5.5-.5-.5zM6 6h1v4h2v1H6V6zm7 0h-3v3h2v1h-2v1h3V8h-2V7h2V6z" fill="currentColor"/></svg>
